X: 3397
T: Bernie McKiernan's Dream
R: reel
M: 4/4
K: Dmajor
|:B|A2 ~A2 FAdB|AGFD EA, A,2|ABAG FAdB|ABde fedB|
AF ~F2 DF ~F2|AF ~F2 GE ~E2|A3 F A2 FA|(3Bcd AG FD D:|
|:A|d2 fd adfd|cdef gfec|d2 fd adfd|(3Bcd AG FD D2|
d2 fd adfd|cdef g2 fg|afge d2 cA|(3Bcd AG FD D:|

